packages/core/src/browser/icons/replace-inverse.svg

<svg enable-background="new 0 0 16 16" height="16" viewBox="0 0 16 16" width="16" xmlns="http://www.w3.org/2000/svg"><path d="m11 3v-2h-1v5 1h1 2 1v-3-1zm2 3h-2v-2h2z" fill="#c5c5c5"/><path d="m2 15h7v-6h-7zm2-5h3v1h-2v2h2v1h-3z" fill="#c5c5c5"/><path d="m3.979 3.5.021 2.5-1-1v1.5l1.5 1.5 1.5-1.5v-1.5l-1 1-.021-2.5c0-.275.225-.5.5-.5h3.521v-1h-3.521c-.828 0-1.5.673-1.5 1.5z" fill="#75beff"/></svg>

<!--Copyright (c) Microsoft Corporation. All rights reserved.-->
<!--Copyright (C) 2018 TypeFox and others.-->
<!--Licensed under the MIT License. See License.txt in the project root for license information.-->
<svg xmlns="http://www.w3.org/2000/svg" xmlns:xlink="http://www.w3.org/1999/xlink" width="16px" height="16px" x="0px" y="0px" enable-background="new 0 0 16 16" version="1.1" viewBox="0 0 16 16" xml:space="preserve">
    <g id="icon_x5F_bg">
        <g>
            <path fill="#C5C5C5" d="M11,3V1h-1v5v1h1h2h1V4V3H11z M13,6h-2V4h2V6z"/>
            <path fill="#C5C5C5" d="M2,15h7V9H2V15z M4,10h3v1H5v2h2v1H4V10z"/>
        </g>
    </g>
    <g id="color_x5F_importance">
        <path fill="#75BEFF" d="M3.979,3.5L4,6L3,5v1.5L4.5,8L6,6.5V5L5,6L4.979,3.5c0-0.275,0.225-0.5,0.5-0.5H9V2H5.479
		C4.651,2,3.979,2.673,3.979,3.5z"/>
    </g>
</svg>
